symbols/web/ad_units/materialsymbolsoutlined/ad_units_gradN25_20px.svg

<svg xmlns="http://www.w3.org/2000/svg" height="20" width="20"><path d="M6.771 7.792V6.146h6.479v1.646Zm-.792 11.166q-.687 0-1.167-.479-.479-.479-.479-1.167V2.688q0-.688.479-1.167.48-.479 1.167-.479h8.042q.687 0 1.167.479.479.479.479 1.167v14.624q0 .688-.479 1.167-.48.479-1.167.479Zm0-4.208h8.042v-9.5H5.979Zm0 1.646v.916h8.042v-.916Zm0-12.792h8.042v-.916H5.979Zm0-.916v.916-.916Zm0 14.624v-.916.916Z"/></svg>

<svg xmlns="http://www.w3.org/2000/svg" height="20" width="20"><path d="M6.771 7.792V6.146H13.25V7.792ZM5.979 18.958Q5.292 18.958 4.812 18.479Q4.333 18 4.333 17.312V2.688Q4.333 2 4.812 1.521Q5.292 1.042 5.979 1.042H14.021Q14.708 1.042 15.188 1.521Q15.667 2 15.667 2.688V17.312Q15.667 18 15.188 18.479Q14.708 18.958 14.021 18.958ZM5.979 14.75H14.021V5.25H5.979ZM5.979 16.396V17.312Q5.979 17.312 5.979 17.312Q5.979 17.312 5.979 17.312H14.021Q14.021 17.312 14.021 17.312Q14.021 17.312 14.021 17.312V16.396ZM5.979 3.604H14.021V2.688Q14.021 2.688 14.021 2.688Q14.021 2.688 14.021 2.688H5.979Q5.979 2.688 5.979 2.688Q5.979 2.688 5.979 2.688ZM5.979 2.688Q5.979 2.688 5.979 2.688Q5.979 2.688 5.979 2.688V3.604V2.688Q5.979 2.688 5.979 2.688Q5.979 2.688 5.979 2.688ZM5.979 17.312Q5.979 17.312 5.979 17.312Q5.979 17.312 5.979 17.312V16.396V17.312Q5.979 17.312 5.979 17.312Q5.979 17.312 5.979 17.312Z"/></svg>
